src/amo/components/Icon/img/permissions/dev.svg

<svg xmlns="http://www.w3.org/2000/svg" xmlns:xlink="http://www.w3.org/1999/xlink" width="24" height="24" viewBox="0 0 24 24">
  <defs>
    <path id="dev-a" d="M21.8325,4.8 L18.1815,8.454 C17.7159447,8.94976701 17.0173818,9.15271883 16.358655,8.98358678 C15.6999282,8.81445472 15.1855453,8.30007177 15.0164132,7.64134499 C14.8472812,6.98261821 15.050233,6.28405525 15.546,5.8185 L19.2,2.1675 C18.3655882,1.73424697 17.440171,1.50546327 16.5,1.5 C14.3455146,1.48717375 12.3516071,2.63736155 11.2840705,4.50881479 C10.2165339,6.38026803 10.2413547,8.68200286 11.349,10.53 L1.9395,19.9395 C1.54956512,20.3161117 1.3931811,20.8738168 1.53045427,21.398261 C1.66772743,21.9227051 2.07729487,22.3322726 2.60173901,22.4695457 C3.12618316,22.6068189 3.68388829,22.4504349 4.0605,22.0605 L13.47,12.651 C14.3853128,13.2012408 15.4320428,13.4945324 16.5,13.5 C19.8137085,13.5 22.5,10.8137085 22.5,7.5 C22.4945367,6.55982905 22.265753,5.63441182 21.8325,4.8 Z"/>
  </defs>
  <g fill="none" fill-rule="evenodd">
    <rect width="24" height="24"/>
    <mask id="dev-b" fill="#fff">
      <use xlink:href="#dev-a"/>
    </mask>
    <g fill="#0F1126" mask="url(#dev-b)">
      <rect width="24" height="24"/>
    </g>
  </g>
</svg>

<svg xmlns="http://www.w3.org/2000/svg" xmlns:xlink="http://www.w3.org/1999/xlink" width="24" height="24"><defs><path id="a" d="m21.832 4.8-3.65 3.654a1.865 1.865 0 1 1-2.636-2.636l3.654-3.65a5.934 5.934 0 0 0-2.7-.668 5.964 5.964 0 0 0-5.151 9.03l-9.41 9.41a1.5 1.5 0 1 0 2.122 2.12l9.409-9.409a5.94 5.94 0 0 0 3.03.849 6 6 0 0 0 6-6 5.934 5.934 0 0 0-.668-2.7Z"/></defs><g fill="none" fill-rule="evenodd"><path d="M0 0h24v24H0z"/><mask id="b" fill="#fff"><use xlink:href="#a"/></mask><g fill="#0F1126" mask="url(#b)"><path d="M0 0h24v24H0z"/></g></g></svg>
